X: 5
T: Polsch
C: Rasmus Storm (1760)
R: pols
Z: 2009 John Chambers <jc:trillian.mit.edu>
S: handwritten page from Spillemandsorkestret
M: 3/4
L: 1/8
K: D
|: "D"(3dcB A2 "A"c>e | "D"(3dcB A2 "A"c>e | "D"d>e (3fgf "A"(3ece | "D"d2 d4 :|
|: "D"f>f f>f f>a | "A7"g>f f>e e2 | "D"f>e d>d d>f | "A7"e>d d>c c>e |
|  "D"(3dcB A2 "A"c>e | "D"(3dcB A2 "A"c>e | "D"d>e (3fgf "A"(3ece | "D"d2 d4 :|
%%sep 2 1 500
